X: 20956
T: Juan Martino's
R: reel
M: 4/4
K: Amixolydian
C4 B,4|A,CEA, FEEF|AEFE EFCE|EFCE B,B,B,E|
C2CE B,2B,C|A,CEA, FEEF|AEFE EFCE|B,CEF A,2A,2|
C4 B,4|A,CEA, FEEF|AEFE EFCE|EFCE B,B,B,A|
CCC2 B,B,B,2|A,CEA, FEEF|AEFE EFCE|B,CEF A,2A2-|
|:AEFE EFCE|EFCE B,B,B,A-|AEFE EFCE|B,CEF A,2A2-|
AEFE EFCE|EFCE B,B,B,A-|AEFE EFCE|B,CEF A,2A2:|

